X:48
T:O Dear What Can The Matter Be
N:page 27 on manuscript
M:6/8
L:1/8
K:F
V:1
c3 c3 | cAf cAF | B3 B3 | BGA BAG | c3 c3 | cAf cAF | DFB ABG | (F3 F2) :||: c |
V:2
A3 A3 | AFc AFA | G3 G3 | GEF GFE | A3 A3 | AFc AFA | FDF FGE | (F3 F2 ) :||: A |
V:1
(cAB) (cAB) | cAf cAF | (BGA) (BGA) | (BGA) BAG | (cAB) (cAB) | cAf cAF | DEB ABG | (F3 F2) :|
V:2
(AFG) (AFG) | AFA AFA | (GEF) (GEF) | (GEF) GFE | (AFG) (AFG) | AFA AFA | FDF FGE | (F3 F2) :|

